X: 35759
T: Sally
R: reel
M: 4/4
K: Amajor
B|AFEF ABcA|BEcE dEcE|AFEF ABce|afec BdcB|
AFEF ABcA|BEcE dEcE|AFEF ABce|afec (3AAA A||
eac'a bac'a|eac'a ebba|eac'a bac'a|bac'b (3aaa a2|
eac'a bac'a|eac'a eb b2|c'abg agfe|afec (3AAA A||

